icons/bamboo/bamboo-original-wordmark.svg

<?xml version="1.0" encoding="UTF-8"?>
<svg xmlns="http://www.w3.org/2000/svg" xmlns:xlink="http://www.w3.org/1999/xlink" width="128px" height="px" viewBox="0 0 128 128" version="1.1">
<defs>
<linearGradient id="linear0" gradientUnits="userSpaceOnUse" x1="11.2175" y1="7.48601" x2="11.2175" y2="21.607" gradientTransform="matrix(4.068154,0,0,4.068154,-2.193004,-13.324674)">
<stop offset="0" style="stop-color:rgb(0%,32.156863%,80%);stop-opacity:1;"/>
<stop offset="1" style="stop-color:rgb(14.901961%,51.764706%,100%);stop-opacity:1;"/>
</linearGradient>
<linearGradient id="linear1" gradientUnits="userSpaceOnUse" x1="11.1683" y1="7.48595" x2="11.1683" y2="21.6069" gradientTransform="matrix(4.068154,0,0,4.068154,-2.193004,-13.324674)">
<stop offset="0" style="stop-color:rgb(0%,32.156863%,80%);stop-opacity:1;"/>
<stop offset="1" style="stop-color:rgb(14.901961%,51.764706%,100%);stop-opacity:1;"/>
</linearGradient>
</defs>
<g id="surface1">
<path style=" stroke:none;fill-rule:nonzero;fill:rgb(14.901961%,51.764706%,100%);fill-opacity:1;" d="M 103.710938 58.511719 L 83.375 58.511719 C 82.121094 58.511719 80.867188 59.488281 80.726562 60.742188 C 79.613281 68.820312 72.644531 75.089844 64.289062 75.089844 L 69.722656 100.164062 C 89.503906 97.519531 104.964844 81.359375 106.359375 61.296875 C 106.5 59.765625 105.246094 58.511719 103.710938 58.511719 Z M 103.710938 58.511719 "/>
<path style=" stroke:none;fill-rule:nonzero;fill:rgb(14.901961%,51.764706%,100%);fill-opacity:1;" d="M 68.742188 57.816406 L 97.996094 32.738281 C 99.25 31.625 99.25 29.8125 97.996094 28.699219 L 68.742188 3.625 C 67.070312 2.089844 64.421875 3.34375 64.421875 5.574219 L 64.421875 55.726562 C 64.285156 58.09375 66.929688 59.347656 68.742188 57.816406 Z M 68.742188 57.816406 "/>
<path style=" stroke:none;fill-rule:nonzero;fill:url(#linear0);" d="M 22.496094 63.945312 C 25.140625 84.5625 42.835938 100.582031 64.289062 100.582031 L 64.289062 75.089844 C 55.09375 75.089844 47.570312 67.707031 47.570312 58.511719 Z M 22.496094 63.945312 "/>
<path style=" stroke:none;fill-rule:nonzero;fill:url(#linear1);" d="M 22.214844 58.09375 L 22.214844 58.511719 L 47.710938 58.511719 C 47.710938 49.316406 55.234375 41.933594 64.425781 41.933594 L 58.992188 16.859375 C 38.375 19.503906 22.355469 36.917969 22.214844 58.09375 Z M 22.214844 58.09375 "/>
<path style=" stroke:none;fill-rule:nonzero;fill:rgb(14.509804%,21.960784%,34.509804%);fill-opacity:1;" d="M 11.371094 104.097656 L 19.441406 104.097656 C 23.375 104.097656 25.277344 106.03125 25.277344 109.132812 C 25.277344 111.46875 24.210938 112.902344 22.042969 113.402344 C 24.875 113.867188 26.3125 115.433594 26.3125 118.167969 C 26.3125 121.238281 24.242188 123.371094 19.910156 123.371094 L 11.371094 123.371094 Z M 14.039062 106.601562 L 14.039062 112.335938 L 19.109375 112.335938 C 21.609375 112.335938 22.644531 111.199219 22.644531 109.332031 C 22.644531 107.464844 21.542969 106.566406 19.109375 106.566406 L 14.039062 106.566406 Z M 14.039062 114.703125 L 14.039062 120.703125 L 20.042969 120.703125 C 22.574219 120.703125 23.710938 119.804688 23.710938 117.871094 C 23.710938 115.800781 22.609375 114.703125 19.976562 114.703125 Z M 14.039062 114.703125 "/>
<path style=" stroke:none;fill-rule:nonzero;fill:rgb(14.509804%,21.960784%,34.509804%);fill-opacity:1;" d="M 39.28125 120.734375 C 38.347656 122.667969 36.582031 123.667969 34.3125 123.667969 C 30.414062 123.667969 28.445312 120.367188 28.445312 116.035156 C 28.445312 111.898438 30.511719 108.398438 34.613281 108.398438 C 36.746094 108.398438 38.414062 109.367188 39.28125 111.265625 L 39.28125 108.699219 L 41.816406 108.699219 L 41.816406 123.371094 L 39.28125 123.371094 Z M 35.015625 121.300781 C 37.28125 121.300781 39.28125 119.867188 39.28125 116.601562 L 39.28125 115.433594 C 39.28125 112.167969 37.449219 110.734375 35.28125 110.734375 C 32.445312 110.734375 30.980469 112.601562 30.980469 116 C 30.980469 119.535156 32.378906 121.300781 35.015625 121.300781 Z M 35.015625 121.300781 "/>
<path style=" stroke:none;fill-rule:nonzero;fill:rgb(14.509804%,21.960784%,34.509804%);fill-opacity:1;" d="M 58.089844 123.371094 L 55.554688 123.371094 L 55.554688 114.5 C 55.554688 111.867188 54.488281 110.699219 52.085938 110.699219 C 49.753906 110.699219 48.117188 112.265625 48.117188 115.234375 L 48.117188 123.402344 L 45.585938 123.402344 L 45.585938 108.734375 L 48.117188 108.734375 L 48.117188 111.132812 C 49.050781 109.398438 50.785156 108.433594 52.753906 108.433594 C 55.253906 108.433594 56.957031 109.699219 57.6875 112 C 58.523438 109.734375 60.488281 108.433594 62.925781 108.433594 C 66.226562 108.433594 68.027344 110.667969 68.027344 114.800781 L 68.027344 123.402344 L 65.492188 123.402344 L 65.492188 115.234375 C 65.492188 112.199219 64.425781 110.699219 62.023438 110.699219 C 59.691406 110.699219 58.054688 112.265625 58.054688 115.234375 L 58.054688 123.371094 Z M 58.089844 123.371094 "/>
<path style=" stroke:none;fill-rule:nonzero;fill:rgb(14.509804%,21.960784%,34.509804%);fill-opacity:1;" d="M 74.09375 120.769531 L 74.09375 123.335938 L 71.5625 123.335938 L 71.5625 102.53125 L 74.09375 102.53125 L 74.09375 111.300781 C 75.027344 109.367188 76.796875 108.367188 79.0625 108.367188 C 82.964844 108.367188 84.933594 111.667969 84.933594 116.003906 C 84.933594 120.136719 82.863281 123.636719 78.765625 123.636719 C 76.628906 123.671875 74.960938 122.703125 74.09375 120.769531 Z M 78.363281 110.734375 C 76.097656 110.734375 74.09375 112.167969 74.09375 115.433594 L 74.09375 116.601562 C 74.09375 119.871094 75.929688 121.304688 78.097656 121.304688 C 80.929688 121.304688 82.398438 119.4375 82.398438 116.035156 C 82.398438 112.5 81 110.734375 78.363281 110.734375 Z M 78.363281 110.734375 "/>
<path style=" stroke:none;fill-rule:nonzero;fill:rgb(14.509804%,21.960784%,34.509804%);fill-opacity:1;" d="M 86.964844 116 C 86.964844 111.601562 89.535156 108.398438 93.9375 108.398438 C 98.304688 108.398438 100.871094 111.601562 100.871094 116 C 100.871094 120.402344 98.304688 123.667969 93.9375 123.667969 C 89.566406 123.667969 86.964844 120.402344 86.964844 116 Z M 89.433594 116 C 89.433594 118.800781 90.800781 121.300781 93.96875 121.300781 C 97.070312 121.300781 98.4375 118.769531 98.4375 116 C 98.4375 113.234375 97.105469 110.734375 93.96875 110.734375 C 90.835938 110.734375 89.433594 113.199219 89.433594 116 Z M 89.433594 116 "/>
<path style=" stroke:none;fill-rule:nonzero;fill:rgb(14.509804%,21.960784%,34.509804%);fill-opacity:1;" d="M 102.941406 116 C 102.941406 111.601562 105.507812 108.398438 109.910156 108.398438 C 114.277344 108.398438 116.84375 111.601562 116.84375 116 C 116.84375 120.402344 114.277344 123.667969 109.910156 123.667969 C 105.507812 123.667969 102.941406 120.402344 102.941406 116 Z M 105.40625 116 C 105.40625 118.800781 106.773438 121.300781 109.941406 121.300781 C 113.042969 121.300781 114.410156 118.769531 114.410156 116 C 114.410156 113.234375 113.078125 110.734375 109.941406 110.734375 C 106.773438 110.734375 105.40625 113.199219 105.40625 116 Z M 105.40625 116 "/>
</g>
</svg>

<svg xmlns="http://www.w3.org/2000/svg" viewBox="0 0 128 128"><defs><linearGradient id="bamboo-original-wordmark-a" gradientUnits="userSpaceOnUse" x1="11.217" y1="7.486" x2="11.217" y2="21.607" gradientTransform="matrix(4.06815 0 0 4.06815 -2.193 -13.325)"><stop offset="0" stop-color="#0052cc"/><stop offset="1" stop-color="#2684ff"/></linearGradient><linearGradient id="bamboo-original-wordmark-b" gradientUnits="userSpaceOnUse" x1="11.168" y1="7.486" x2="11.168" y2="21.607" gradientTransform="matrix(4.06815 0 0 4.06815 -2.193 -13.325)"><stop offset="0" stop-color="#0052cc"/><stop offset="1" stop-color="#2684ff"/></linearGradient></defs><path d="M103.71 58.512H83.376c-1.254 0-2.508.976-2.648 2.23-1.114 8.078-8.082 14.348-16.438 14.348l5.434 25.074c19.78-2.644 35.242-18.805 36.636-38.867.141-1.531-1.113-2.785-2.648-2.785zm0 0M68.742 57.816l29.254-25.078c1.254-1.113 1.254-2.925 0-4.039L68.742 3.625c-1.672-1.535-4.32-.281-4.32 1.95v50.152c-.137 2.367 2.508 3.62 4.32 2.09zm0 0" fill="#2684ff"/><path d="M22.496 63.945c2.645 20.617 20.34 36.637 41.793 36.637V75.09c-9.195 0-16.719-7.383-16.719-16.578zm0 0" fill="url(#bamboo-original-wordmark-a)"/><path d="M22.215 58.094v.418H47.71c0-9.196 7.523-16.578 16.715-16.578l-5.434-25.075c-20.617 2.645-36.637 20.059-36.777 41.235zm0 0" fill="url(#bamboo-original-wordmark-b)"/><path d="M11.371 104.098h8.07c3.934 0 5.836 1.933 5.836 5.035 0 2.336-1.066 3.77-3.234 4.27 2.832.464 4.27 2.03 4.27 4.765 0 3.07-2.07 5.203-6.403 5.203h-8.539zm2.668 2.504v5.734h5.07c2.5 0 3.536-1.137 3.536-3.004s-1.102-2.766-3.536-2.766h-5.07zm0 8.101v6h6.004c2.531 0 3.668-.898 3.668-2.832 0-2.07-1.102-3.168-3.734-3.168zm0 0M39.281 120.734c-.933 1.934-2.699 2.934-4.968 2.934-3.899 0-5.868-3.3-5.868-7.633 0-4.137 2.067-7.637 6.168-7.637 2.133 0 3.801.97 4.668 2.868v-2.567h2.535v14.672h-2.535zm-4.265.567c2.265 0 4.265-1.434 4.265-4.7v-1.167c0-3.266-1.832-4.7-4-4.7-2.836 0-4.3 1.868-4.3 5.266 0 3.535 1.398 5.3 4.035 5.3zm0 0M58.09 123.371h-2.535V114.5c0-2.633-1.067-3.8-3.47-3.8-2.331 0-3.968 1.566-3.968 4.534v8.168h-2.531v-14.668h2.531v2.399c.934-1.735 2.668-2.7 4.637-2.7 2.5 0 4.203 1.266 4.934 3.567.835-2.266 2.8-3.566 5.238-3.566 3.3 0 5.101 2.234 5.101 6.367v8.601h-2.535v-8.168c0-3.035-1.066-4.535-3.469-4.535-2.332 0-3.968 1.567-3.968 4.535v8.137zm0 0M74.094 120.77v2.566h-2.531V102.53h2.53v8.77c.934-1.934 2.704-2.934 4.97-2.934 3.902 0 5.87 3.301 5.87 7.637 0 4.133-2.07 7.633-6.167 7.633-2.137.035-3.805-.934-4.672-2.867zm4.27-10.036c-2.266 0-4.27 1.434-4.27 4.7v1.168c0 3.27 1.836 4.703 4.004 4.703 2.832 0 4.3-1.868 4.3-5.27 0-3.535-1.398-5.3-4.035-5.3zm0 0M86.965 116c0-4.398 2.57-7.602 6.972-7.602 4.368 0 6.934 3.204 6.934 7.602 0 4.402-2.566 7.668-6.933 7.668-4.372 0-6.973-3.266-6.973-7.668zm2.469 0c0 2.8 1.367 5.3 4.535 5.3 3.101 0 4.469-2.53 4.469-5.3 0-2.766-1.333-5.266-4.47-5.266-3.132 0-4.534 2.465-4.534 5.266zm0 0M102.941 116c0-4.398 2.567-7.602 6.97-7.602 4.366 0 6.933 3.204 6.933 7.602 0 4.402-2.567 7.668-6.934 7.668-4.402 0-6.969-3.266-6.969-7.668zm2.465 0c0 2.8 1.367 5.3 4.535 5.3 3.102 0 4.47-2.53 4.47-5.3 0-2.766-1.333-5.266-4.47-5.266-3.168 0-4.535 2.465-4.535 5.266zm0 0" fill="#253858"/></svg>
